!!!COM: Macigni, Giovanni
!!!CDT:
!!!OTL: In un fonte tranquillo
!!!PTL: Madrigali a cinque voci, con il basso continuo, libro primo
!!!PPP: Venice
!!!PPR: Bartholomeo Magni
!!!PDT: 1617
!!!PUB-format:
!!!RISM: M 54
!!!rime: 347
!!!AGN: Madrigal
!!!SCT: Trm0347a
!!!SCA: Trm0347a
!!!original-voices: 5+bc
!!!extant-voices: 4
!!!complete: N
!!!final: A
**kern	**text	**kern	**text	**kern	**text	**kern	**text
*part4	*part4	*part3	*part3	*part2	*part2	*part1	*part1
*staff4	*staff4	*staff3	*staff3	*staff2	*staff2	*staff1	*staff1
*I"Quinto	*	*I"Tenore	*	*I"Alto	*	*I"Canto	*
*I'V	*	*I'T	*	*I'A	*	*I'C	*
*oclefC4	*	*oclefC4	*	*oclefC3	*	*oclefC1	*
*clefGv2	*	*clefGv2	*	*clefGv2	*	*clefG2	*
*k[]	*	*k[]	*	*k[]	*	*k[]	*
*C:	*	*C:	*	*C:	*	*C:	*
*omet(C)	*	*omet(C)	*	*omet(C)	*	*omet(C)	*
*M2/1	*	*M2/1	*	*M2/1	*	*M2/1	*
=1	=1	=1	=1	=1	=1	=1	=1
2.A	In	0r	.	2.c#X	In	2.e	In
4d	un	.	.	4d	un	4f#X	un
2c	fon-	.	.	2e	fon-	2g	fon-
4F	-te	.	.	4f	-te	4a	-te
4C	tran-	.	.	4e	tran-	4g	tran-
=2	=2	=2	=2	=2	=2	=2	=2
1D	-quil-	0r	.	1d	-quil-	1fnXi	-quil-
2A	-lo	.	.	2c#X	-lo	2e	-lo
2r	.	.	.	2r	.	4r	.
.	.	.	.	.	.	[4e	Si
=3	=3	=3	=3	=3	=3	=3	=3
2A	Si	0r	.	2c#X	Si	4e]	.
.	.	.	.	.	.	2f#X	spec-
2B	spec-	.	.	2d	spec-	.	.
.	.	.	.	.	.	2g	-chia-
2c	-chia-	.	.	2e	-chia-	.	.
.	.	.	.	.	.	2a	-va
4d	-va	.	.	2f#X	-va	.	.
4d	Ne-	.	.	.	.	4b	Ne-
=4	=4	=4	=4	=4	=4	=4	=4
1e	-e-	0r	.	4g#X	Ne-	1b	-e-
.	.	.	.	2a	-e-	.	.
.	.	.	.	4g#X	.	.	.
1c	-ta,	.	.	1a	-ra,	1a	-ra,
=5	=5	=5	=5	=5	=5	=5	=5
4r	.	4r	.	4r	.	4r	.
4e	E	4G	E	4gnXi	E	4ee	E
2.e	[Tir-	4.G	[Tir-	2.g	[Tir-	2.ee	Tir-
.	.	8F	-si	.	.	.	.
.	.	4E	le]	.	.	.	.
4A	-si	4F	di-	4f	-si	4dd	-si
4G	le]	[2G	-cea	4e	le]	4cc	le
4A	di-	.	.	4e	di-	4cc	di-
=6	=6	=6	=6	=6	=6	=6	=6
1B	-cea	2G]	.	2d	-cea	1b	-cea
.	.	2B	pian-	4d	pian-	.	.
.	.	.	.	2e	-gen-	.	.
1r	.	2.A	-gen-	.	.	1r	.
.	.	.	.	4d#X	-d'in-	.	.
.	.	.	.	2e	-tan-	.	.
.	.	4G	-d'in-	.	.	.	.
=7	=7	=7	=7	=7	=7	=7	=7
2r	.	2F#X	-tan-	2B	-to,	2r	.
2c	pian-	2E	-to:	2e	<pian-	4g#i	pian-
.	.	.	.	.	.	2a	-gen-
2B	-gen-	1r	.	2.dnXi	-gen-	.	.
.	.	.	.	.	.	4g#X	-d'in-
2A	-d'in-	.	.	.	.	2a	-tan-
.	.	.	.	4c	-d'in-	.	.
=8	=8	=8	=8	=8	=8	=8	=8
2G#X	-tan-	1r	.	2B	-tan-	2e	-to:
2A	-to:	.	.	2A	-to:>	2r	.
2r	.	2r	.	2r	.	2r	.
2c	"Men-	2G	"Men-	2e	"Men-	2cc	"Men-
=9	=9	=9	=9	=9	=9	=9	=9
1d	-tre,	1G	-tre,	1g	-tre,	1b	-tre,
2r	.	2r	.	2r	.	2r	.
2d	<Men-	2A	Men-	2f	<Men-	2dd	Men-
=10	=10	=10	=10	=10	=10	=10	=10
1e	-tre	2A	-tre	2a	-tre>	4cc	-tre
.	.	.	.	.	.	4ee	co-
.	.	4r	.	4r	.	4ee	-sì
.	.	4A	co-	4e	co-	4cc	mi
4r	.	4G#X	-sì	4e	-sì	4b	stil-
4e	co-	4A	[mi	4c	[mi	4a	-lo,
4e	-sì	4E	stil-	4B	stil-	4r	.
4c	[mi	8AA	-lo,]	4A	-lo,]	4ee	<co-
.	.	8A	<co-	.	.	.	.
=11	=11	=11	=11	=11	=11	=11	=11
4B	stil-	4G#X	-sì	4r	.	4ee	-sì
4A	-lo,]	4A	mi	4e	<co-	4cc	mi
4r	.	4E	stil-	4e	-sì	4b	stil-
4e	<co-	8AA	-lo,>	4c	mi	4a	-lo,>
.	.	8A	<co-	.	.	.	.
4e	-sì	4G#i	-sì	4B	stil-	1r	.
4c	mi	4A	mi	4A	-lo,>	.	.
4B	stil-	4E	stil-	2r	.	.	.
4A	-lo,>	4A	-lo,>	.	.	.	.
=12	=12	=12	=12	=12	=12	=12	=12
2r	.	2r	.	0r	.	2.cc	Nin-
2.e	Nin-	2.c	Nin-	.	.	.	.
.	.	.	.	.	.	8b	-fa
.	.	.	.	.	.	8a	sel-
.	.	.	.	.	.	2.g	-vag-
8d	-fa	8B	-fa	.	.	.	.
8c	sel-	8A	sel-	.	.	.	.
4B	-vag-	4GnXi	-vag-	.	.	.	.
[4c	-gia e	4E	-gia e	.	.	4g	-gia e
=13	=13	=13	=13	=13	=13	=13	=13
4c]	.	2D	fe-	2r	.	2f	fe-
4B	fe-	.	.	.	.	.	.
2c	-ra,	2C	-ra,	2.g	Nin-	2e	-ra,
2.B	<Nin-	1r	.	.	.	1r	.
.	.	.	.	8f	-fa	.	.
.	.	.	.	8e	sel-	.	.
.	.	.	.	[2d	-vag-	.	.
8A	-fa	.	.	.	.	.	.
8G	sel-	.	.	.	.	.	.
=14	=14	=14	=14	=14	=14	=14	=14
4F#X	-vag-	1r	.	4d]	.	0r	.
2G	-gia e-	.	.	4d	-gia e	.	.
.	.	.	.	2c	fe-	.	.
4F#X	-fe-	.	.	.	.	.	.
2G	-ra,>	2r	.	4B	-ra,	.	.
.	.	.	.	2d	Spe-	.	.
[2B	Spe-	[2G	Spe-	.	.	.	.
.	.	.	.	8e	-ro	.	.
.	.	.	.	8f	fon-	.	.
=15	=15	=15	=15	=15	=15	=15	=15
4B]	.	4G]	.	8g	-ta-	2.g	Spe-
.	.	.	.	8f	-na	.	.
8c	-ro	8A	-ro	8e	di-	.	.
8d	fon-	8B	fon-	8d	-ve-	.	.
8e	-ta-	8c	-ta-	1c	-nir	.	.
8d	-na	8B	-na	.	.	.	.
8c	di-	8A	di-	.	.	8a	-ro
8B	-ve-	8G	-ve-	.	.	8b	fon-
2.A	-nir	2F	-nir	.	.	8cc	-ta-
.	.	.	.	.	.	8b	-na
.	.	.	.	.	.	8a	di-
.	.	.	.	.	.	8g	-ve-
.	.	2D	di	2d	di	4f	-nir
4A	di	.	.	.	.	4f	di
=16	=16	=16	=16	=16	=16	=16	=16
4G#X	pian-	1E	pian-	1B	pian-	1e	pian-
2A	.	.	.	.	.	.	.
4G#X	.	.	.	.	.	.	.
2A	-to,	4AA	-to,	2c#X	-to,	2e	-to:
.	.	2A	<Spe-	.	.	.	.
[2F#X	<Spe-	.	.	2r	.	2r	.
.	.	8B	-ro	.	.	.	.
.	.	8c	fon-	.	.	.	.
=17	=17	=17	=17	=17	=17	=17	=17
4F#]	.	8d	-ta-	2.d	Spe-	0r	.
.	.	8c	-na	.	.	.	.
8GnXi	-ro	8B	di-	.	.	.	.
8A	fon-	8A	-ve-	.	.	.	.
8B	-ta-	1G	-nir	.	.	.	.
8A	-na	.	.	.	.	.	.
8G	di-	.	.	8e	-ro	.	.
8FnXi	-ve-	.	.	8f	fon-	.	.
2.E	-nir	.	.	8g	-ta-	.	.
.	.	.	.	8f	-na	.	.
.	.	.	.	8e	di-	.	.
.	.	.	.	8d	-ve-	.	.
.	.	2A	di	4cnXi	-nir	.	.
4E	di	.	.	4c	di	.	.
=18	=18	=18	=18	=18	=18	=18	=18
4D#X	pian-	1F#X	pian-	1B	pian-	1r	.
2E	.	.	.	.	.	.	.
4D#X	.	.	.	.	.	.	.
4E	-to:>	2G#X	-to:>	4B	-to:	2r	.
4E	Al-	.	.	4e	Al-	.	.
[2e	-l'hor	2r	.	[2g	-l'hor	4r	.
.	.	.	.	.	.	4b	Al-
=19	=19	=19	=19	=19	=19	=19	=19
4e]	.	1r	.	4g]	.	4ee	-l'hor
4B	in	.	.	4d	in	4dd	in
4c	me	.	.	4e	me	4cc	me
4G	ve-	.	.	4g	ve-	4b	ve-
2dnXi	-dre-	2r	.	2f#X	-dre-	2a	-dre-
2d	-te,	4r	.	2f#i	-te,	2a	-te
.	.	4A	Al-	.	.	.	.
=20	=20	=20	=20	=20	=20	=20	=20
4r	.	2.c	-l'hor	4r	.	0r	.
4c	<Al-	.	.	4a	<Al-	.	.
4.e	-l'hor	.	.	4a	-l'hor	.	.
.	.	4B	in	4g	in	.	.
8d	in	.	.	.	.	.	.
4c	me	4A	me	4fnXi	me	.	.
4c	ve-	4G	ve-	4e	ve-	.	.
2B	-dre-	2G	-dre-	2d	-dre-	.	.
=21	=21	=21	=21	=21	=21	=21	=21
2c	-te	2G	-te	1e	-te	0r	.
4e	Quan-	4c	Quan-	.	.	.	.
8e	-to	8c	-to	.	.	.	.
8e	[voi	8c	[voi	.	.	.	.
4d	bel-	4B	bel-	4g	Quan-	.	.
4d	-l'e	4B	-l'e	8g	-to	.	.
.	.	.	.	8g	[voi	.	.
8c	quan-	8A	quan-	4f	bel-	.	.
8B	-to	8G	-to	.	.	.	.
8c	cru-	8A	cru-	4f	-l'e	.	.
8d	-da	8B	-da	.	.	.	.
=22	=22	=22	=22	=22	=22	=22	=22
2e	se-	4.c	se-	8e	quan-	1r	.
.	.	.	.	8d	-to	.	.
.	.	.	.	8e	cru-	.	.
.	.	16BL	.	8f	-da	.	.
.	.	16AJ	.	.	.	.	.
2d	-te,]	2B	.	2g	se-	.	.
1r	.	2A	-te,]	2d	-te,]	4dd	Quan-
.	.	.	.	.	.	8dd	-to
.	.	.	.	.	.	8dd	voi
.	.	4e	<Quan-	2r	.	4cc	bel-
.	.	8e	-to	.	.	4cc	-l'e
.	.	8e	voi	.	.	.	.
=23	=23	=23	=23	=23	=23	=23	=23
2r	.	4d	bel-	4g	<Quan-	8b	quan-
.	.	.	.	.	.	8a	-to
.	.	4G	-la e	8g	-to	8b	cru-
.	.	.	.	8g	voi	8cc	-da
4d	<Quan-	8A	quan-	4f	bel-	4dd	se-
.	.	8G	-to	.	.	.	.
8d	-to	8A	cru-	4f	-l'e	4a	-te,
8d	voi	8B	-da	.	.	.	.
4c	bel-	4c	se-	8e	quan-	1r	.
.	.	.	.	8d	-to	.	.
4c	-l'e	4A	-te,>	8e	cru-	.	.
.	.	.	.	8f	-da	.	.
8B	quan-	4G	<Quan-	4g	se-	.	.
8A	-to	.	.	.	.	.	.
8B	cru-	8G	-to	4d	-te,>	.	.
8c	-da	8G	voi	.	.	.	.
=24	=24	=24	=24	=24	=24	=24	=24
4d	se-	4F	bel-	1r	.	1r	.
4A	-te,>	4F	-l'e	.	.	.	.
4e	<Quan-	8E	quan-	.	.	.	.
.	.	8D	-to	.	.	.	.
8e	-to	8E	cru-	.	.	.	.
8e	voi	8F	-da	.	.	.	.
4d	bel-	4G	se-	4g	<Quan-	2r	.
4B	-l'e	4D	-te,>	8g	-to	.	.
.	.	.	.	8g	voi	.	.
8A	quan-	2r	.	4f	bel-	4dd	Quan-
8G	-to	.	.	.	.	.	.
8A	cru-	.	.	4f	-l'e	8dd	-to
8B	-da	.	.	.	.	8dd	voi
=25	=25	=25	=25	=25	=25	=25	=25
4c	se-	4A	<Quan-	8e	quan-	4cc	bel-
.	.	.	.	8d	-to	.	.
4A	-te,>	8A	-to	8e	cru-	4cc	-l'e
.	.	8A	voi	8f	-da	.	.
2r	.	4G	bel-	4g	se-	8b	quan-
.	.	.	.	.	.	8a	-to
.	.	4G	-l'e	4e	-te,>	8b	cru-
.	.	.	.	.	.	8cc	-da
4A	<Quan-	8F	quan-	2r	.	4dd	se-
.	.	8E	-to	.	.	.	.
8A	-to	8F	cru-	.	.	4a	-te,
8B	voi	8G	-da	.	.	.	.
4c	bel-	2A	se-	4e	Quan-	4r	.
4c	-l'e	.	.	8e	-to	4ee	e
.	.	.	.	8f	voi	.	.
=26	=26	=26	=26	=26	=26	=26	=26
2B	quan-	4G	-te,>	4g	bel-	4.ee	quan-
.	.	4e	[e	4g	-l'e	.	.
.	.	.	.	.	.	8dd	-to
2E	-to	4.e	quan-	4.g	quan-	4cc	cru-
.	.	.	.	.	.	2b	-da
.	.	8d	-to	8f	-to	.	.
4G#X	cru-	4c	cru-	4e	cru-	.	.
4A	-da	4c	-da	4e	-da-	2a	se-
2B	se-	2B	se-	2e	-se-	.	.
.	.	.	.	.	.	4g#X	.
=27	=27	=27	=27	=27	=27	=27	=27
0Al	-te.">	0c#Xl	-te."]	0el	-te.">	0al	-te."
==	==	==	==	==	==	==	==
*-	*-	*-	*-	*-	*-	*-	*-
!!!system-decoration: [*]
!!!RDF**kern: i = editorial accidental
!!!RDF**kern: l = terminal long
!!!ENC: Emiliano Ricciardi
!!!END: 2019/01/01
!!!EED: Ricciardi, Emiliano
!!!EEV: 2019/01/14
!!!YEC: Copyright 2018 Emiliano Ricciardi, All Rights Reserved
!!!ONB: Translated from MusicXML on 2019/01/14 and edited by Craig Stuart Sapp
!!@@BEGIN:	VERSEDATA
!!@SOLERTI:	347
!!@CATALOGNUM:	Trm0347
!!@LAST_MODIFIED: 2020/07/12
!!@ATTRIBUTION:	not secure
!!@TITLE:		In un fonte tranquillo
!!@GENRE:		madrigale
!!@MANUSRC:	none
!!@PRINTSRC:	28, 141, 166, 169
!!@@BEGIN:	VERSES
!!@ABOUTIT:
!!@ABOUTEN:
!!@EDITOR:	Solerti, Angelo
!!@EDITION_TITLE: Le Rime di Torquato Tasso
!!@EDITION_LOC:	Bologna
!!@EDITION_PUB:	Romagnoli-Dall’Acqua
!!@EDITION_DATE:  1898-1902
!!@EDITION_VOL:	2
!!@EDITION_PAGE:  388
!!@TRANSLATOR:	Emiliano Ricciardi and Amyrose McCue Gill
!!@VERSE:
!!	In un fonte tranquillo
!!	Si specchiava Neera,
!!	E Tirsi le dicea piangendo intanto: &mdash;
!!	Mentr'io così mi stillo,
!!	Ninfa selvaggia e fera,
!!	Spero fontana divenir di pianto:
!!	Allora in me vedrete
!!	Quanto voi bella e quanto cruda sete. &mdash;
!!@TVERSE:
!!	In a tranquil spring
!!	Neaera was mirrored,
!!	And Thyrsis said to her, weeping, meanwhile: &mdash;
!!	While I cry thusly,
!!	Wild and resolute nymph,
!!	I hope to become a fountain of tears:
!!	Then you will see in me
!!	How beautiful and how pitiless you are. &mdash;
!!@@END:		VERSES
!!@OTHER_CRIT_ED:   None
!!@ATTRIBUTION_ABOUT:	Not secure
!!		<br>
!!		This poem is attributed to Tasso only in a literary print that was not supervised by the poet, the <i>Gioie di rime, e prose del Sig. Torquato Tasso</i> (Ferrara: Vittorio Baldini, 1587), and in reprints thereof (see Literary Sources).
!!@DATING:	In or before 1587
!!		<i>
!!		The earliest appearance of this poem is in a 1587 literary print (see Attribution and Literary Sources).
!!@DEDICATEE:
!!@COMMENTARY:
!!@@END:		VERSEDATA
!!@@BEGIN:	SETTING
!!@CATALOGNUM:	Trm0347a
!!@RIMETITLE:	In un fonte tranquillo
!!@SOLERTI:	347
!!@COMPOSER:	Macigni, Giovanni
!!@PRINCEPSTITLE:	Madrigali a cinque voci, con il basso continuo, libro primo
!!@PRINCEPSLOC:	Venezia
!!@NORMLOC:	Venice
!!@NORMPUB:	Bartholomeo Magni
!!@NORMPUBSHORT:	Magni
!!@PRINCEPSPUB:	B. Magni
!!@PRINCEPSYEAR:	1617
!!@PRINCEPSRISM:	M 54
!!@REPRINTS:	
!!@OVOICES:	5 + bc
!!@EXTANTVOICES:	4
!!@PARTBOOKS:	
!!@EXTPARTBOOKS:	
!!@OCLEFS:	C1,C3,C4,C4
!!@OMENSURATION:	C
!!@OKEYSIG:	-
!!@FINAL:	A
!!@TIMPEDITOR:	Ricciardi, Emiliano
!!@NOTE:		
!!@@END:		SETTING
